svg/OSM-icons/craft #ff8000 °ffffff !label=encrafts,deHerstellung, Produktion/16003;craft=beekeeper;[addr];[contact];!label=enbeekeeper,deImker.svg

<svg xmlns="http://www.w3.org/2000/svg" viewBox="0 0 580 580" enable-background="new 0 0 580 580"><path fill="#111" stroke="#eee" stroke-width="3.408" d="m66.28 1.768c-41.34 0-64.57 21.371-64.57 65.04v450.12c0 40.844 20.895 62.23 62.19 62.23h452.02c41.31 0 62.23-20.315 62.23-62.23v-450.12c0-42.602-20.923-65.04-63.52-65.04-.003 0-448.5-.143-448.35 0z"/><g fill="#fff"><path d="m188.75 161.47h-94.04c-12.71 0-23.56 4.495-32.55 13.485s-13.485 20.06-13.485 33.21v109.15c0 10.528 4.822 15.793 14.47 15.793 9.202 0 13.806-5.265 13.806-15.793v-106.52h17.1v289.33c0 13.151 6.574 19.726 19.726 19.726s19.727-6.574 19.728-19.726v-167.68h17.09v167.68c0 13.151 6.575 19.726 19.726 19.726 13.592 0 20.389-6.574 20.389-19.726v-289.33h16.435v106.52c0 10.956 4.603 16.436 13.809 16.436 9.216 0 13.825-5.479 13.825-16.436v-108.51c0-12.709-4.275-23.776-12.823-33.2-8.55-9.425-19.619-14.14-33.21-14.14"/><path d="m85.55 96.37c-.162-.035-.316-.07-.476-.106l-10.549 23.263v30.463h11.02v-53.62"/><path d="m127.11 149.99h11.03v-49.37c-3.744-.039-7.432-.115-11.03-.231v49.601"/><path d="m144.64 149.99h11.02v-49.48c-3.608.085-7.292.132-11.02.14v49.34"/><path d="m92.05 149.99h11.02v-51.1c-2.5-.245-4.894-.513-7.151-.805-1.354-.176-2.637-.359-3.873-.549v52.45"/><path d="m109.58 149.99h11.02v-49.86c-3.819-.181-7.505-.405-11.02-.674v50.53"/><path d="m179.69 149.99h11.02v-51.846c-3.405.433-7.101.813-11.02 1.138v50.708"/><path d="m162.16 149.99h11.02v-50.23c-3.542.227-7.228.411-11.02.553v49.679"/><path d="m68.02 133.87l-7.311 16.12h7.311z"/><path d="m197.22 149.99h11.02v-31.378l-9.322-21.724c-.553.102-1.119.203-1.702.302v52.8"/><path d="m214.75 133.77v16.22h6.96z"/><path d="m87.71 90.45c4.663.945 10.715 1.765 17.791 2.408 1.327.121 2.686.236 4.082.345 3.481.271 7.167.5 11.02.685 2.12.102 4.289.189 6.504.263 3.566.118 7.253.196 11.03.235 1.787.019 3.59.031 5.415.031.365 0 .726-.003 1.089-.004 3.76-.008 7.441-.057 11.02-.142 2.209-.053 4.378-.12 6.504-.201 3.831-.145 7.516-.333 11.02-.561 2.245-.146 4.415-.308 6.505-.483 6.429-.544 12.09-1.227 16.708-2.02 8.386-1.436 13.365-3.224 13.365-5.162 0-3.528-16.486-6.559-40.03-7.872.021-.297.046-.593.046-.895v-4.477c0-6.885-5.581-12.465-12.465-12.465h-31.17c-6.884 0-12.465 5.58-12.465 12.465v4.477c0 .376.023.747.056 1.115-21.592 1.412-36.408 4.308-36.408 7.651.0001 1.697 3.818 3.275 10.379 4.605"/><path d="m354.55 382.75c-3.824 0-6.924 3.102-6.924 6.927v123.26c0 3.825 3.1 6.927 6.924 6.927 3.826 0 6.927-3.102 6.927-6.927v-123.26c-.0001-3.826-3.101-6.927-6.927-6.927"/><path d="m511.67 382.75c-3.825 0-6.925 3.102-6.925 6.927v123.26c0 3.825 3.1 6.927 6.925 6.927 3.826 0 6.926-3.102 6.926-6.927v-123.26c-.0001-3.826-3.1-6.927-6.926-6.927"/><path d="m315.5 297.25l114.15-38.75 114.85 38.75"/><path d="m334.5 295.72v93.78h192v-93.77h-192zm177.17 71.78h-157.12v-10h157.12v10"/></g></svg>

<?xml version="1.0" encoding="utf-8"?>
<!-- Generator: Adobe Illustrator 15.0.0, SVG Export Plug-In . SVG Version: 6.00 Build 0)  -->
<!DOCTYPE svg PUBLIC "-//W3C//DTD SVG 1.1//EN" "http://www.w3.org/Graphics/SVG/1.1/DTD/svg11.dtd">
<svg version="1.1" xmlns="http://www.w3.org/2000/svg" xmlns:xlink="http://www.w3.org/1999/xlink" x="0px" y="0px" width="580px"
	 height="580px" viewBox="0 0 580 580" enable-background="new 0 0 580 580" xml:space="preserve">
<g id="Layer_2_1_">
	<g id="Layer_2">
		<g id="g1327">
			<path id="path1329" fill="#111111" stroke="#EEEEEE" stroke-width="3.408" d="M66.275,1.768
				c-41.335,0-64.571,21.371-64.571,65.036v450.123c0,40.844,20.895,62.229,62.192,62.229h452.024
				c41.307,0,62.229-20.315,62.229-62.229V66.804c0-42.602-20.923-65.036-63.521-65.036C514.625,1.768,66.133,1.625,66.275,1.768z"
				/>
		</g>
	</g>
</g>
<g id="Layer_1">
	<g>
		<g>
			<path fill="#FFFFFF" d="M188.75,161.475H94.713c-12.71,0-23.56,4.495-32.55,13.485s-13.485,20.062-13.485,33.211v109.147
				c0,10.528,4.822,15.793,14.47,15.793c9.202,0,13.806-5.265,13.806-15.793V210.802h17.098v289.332
				c0,13.151,6.574,19.726,19.726,19.726s19.727-6.574,19.728-19.726V332.45H150.6v167.684c0,13.151,6.575,19.726,19.726,19.726
				c13.592,0,20.389-6.574,20.389-19.726V210.802h16.435v106.518c0,10.956,4.603,16.436,13.809,16.436
				c9.216,0,13.825-5.479,13.825-16.436V208.814c0-12.709-4.275-23.776-12.823-33.201
				C213.411,166.188,202.342,161.475,188.75,161.475z"/>
			<path fill="#FFFFFF" d="M85.546,96.372c-0.162-0.035-0.316-0.07-0.476-0.106l-10.549,23.263v30.463h11.024V96.372z"/>
			<path fill="#FFFFFF" d="M127.107,149.991h11.025v-49.37c-3.744-0.039-7.432-0.115-11.025-0.231V149.991z"/>
			<path fill="#FFFFFF" d="M144.636,149.991h11.024v-49.483c-3.608,0.085-7.292,0.132-11.024,0.14V149.991z"/>
			<path fill="#FFFFFF" d="M92.051,149.991h11.024V98.894c-2.5-0.245-4.894-0.513-7.151-0.805c-1.354-0.176-2.637-0.359-3.873-0.549
				V149.991z"/>
			<path fill="#FFFFFF" d="M109.579,149.991h11.024v-49.86c-3.819-0.181-7.505-0.405-11.024-0.674V149.991z"/>
			<path fill="#FFFFFF" d="M179.694,149.991h11.024V98.145c-3.405,0.433-7.101,0.813-11.024,1.138V149.991z"/>
			<path fill="#FFFFFF" d="M162.165,149.991h11.024V99.759c-3.542,0.227-7.228,0.411-11.024,0.553V149.991z"/>
			<polygon fill="#FFFFFF" points="68.017,133.873 60.709,149.991 68.017,149.991 			"/>
			<path fill="#FFFFFF" d="M197.222,149.991h11.024v-31.378l-9.322-21.724c-0.553,0.102-1.119,0.203-1.702,0.302V149.991z"/>
			<polygon fill="#FFFFFF" points="214.752,133.768 214.752,149.991 221.713,149.991 			"/>
			<path fill="#FFFFFF" d="M87.706,90.452c4.663,0.945,10.715,1.765,17.791,2.408c1.327,0.121,2.686,0.236,4.082,0.345
				c3.481,0.271,7.167,0.5,11.024,0.685c2.12,0.102,4.289,0.189,6.504,0.263c3.566,0.118,7.253,0.196,11.025,0.235
				c1.787,0.019,3.59,0.031,5.415,0.031c0.365,0,0.726-0.003,1.089-0.004c3.76-0.008,7.441-0.057,11.024-0.142
				c2.209-0.053,4.378-0.12,6.504-0.201c3.831-0.145,7.516-0.333,11.024-0.561c2.245-0.146,4.415-0.308,6.505-0.483
				c6.429-0.544,12.088-1.227,16.708-2.018c8.386-1.436,13.365-3.224,13.365-5.162c0-3.528-16.486-6.559-40.033-7.872
				c0.021-0.297,0.046-0.593,0.046-0.895v-4.477c0-6.885-5.581-12.465-12.465-12.465h-31.17c-6.884,0-12.465,5.58-12.465,12.465
				v4.477c0,0.376,0.023,0.747,0.056,1.115c-21.592,1.412-36.408,4.308-36.408,7.651C77.328,87.544,81.145,89.122,87.706,90.452z"/>
		</g>
		<g>
			<path fill="#FFFFFF" d="M354.55,382.745c-3.824,0-6.924,3.102-6.924,6.927v123.261c0,3.825,3.1,6.927,6.924,6.927
				c3.826,0,6.927-3.102,6.927-6.927V389.672C361.476,385.846,358.376,382.745,354.55,382.745z"/>
			<path fill="#FFFFFF" d="M511.67,382.745c-3.825,0-6.925,3.102-6.925,6.927v123.261c0,3.825,3.1,6.927,6.925,6.927
				c3.826,0,6.926-3.102,6.926-6.927V389.672C518.595,385.846,515.496,382.745,511.67,382.745z"/>
		</g>
	</g>
	<polyline fill="#FFFFFF" points="315.5,297.25 429.648,258.5 544.5,297.25 	"/>
	<path fill="#FFFFFF" d="M334.5,295.724V389.5h192v-93.775H334.5z M511.67,367.5H354.551v-10H511.67V367.5z"/>
</g>
</svg>
